src/assets/logos/DAI.svg

<svg width="24" height="24" viewBox="0 0 24 24" fill="none" xmlns="http://www.w3.org/2000/svg">
<path d="M12 24C18.65 24 24 18.65 24 12C24 5.34996 18.65 0 12 0C5.34996 0 0 5.34996 0 12C0 18.65 5.34996 24 12 24Z" fill="#FFB208"/>
<path fill-rule="evenodd" clip-rule="evenodd" d="M7.5 6.5V10H6V11.3H7.5V12.7002H6V14.0002H7.5V17.5H13C13 17.5 16.5818 17.1418 17.6823 14.0002H19V12.7002H17.9655C17.9881 12.4772 18 12.244 18 12C18 11.7561 17.9881 11.5229 17.9655 11.3H19V10H17.6823C16.582 6.8582 13 6.5 13 6.5H7.5ZM16.6554 12.7002C16.685 12.4806 16.7008 12.2474 16.7008 11.9998C16.7008 11.7524 16.685 11.5194 16.6554 11.3H8.80078V12.7002H16.6554ZM8.80078 14.0002V16.1998H12.9389C12.9389 16.1998 15.2699 15.9632 16.2621 14.0002H8.80078ZM8.80078 10H16.2624C15.2703 8.03644 12.9389 7.7998 12.9389 7.7998H8.80078V10Z" fill="white"/>
</svg>

<svg fill="none" height="24" width="24" xmlns="http://www.w3.org/2000/svg"><path d="M12 24c6.65 0 12-5.35 12-12S18.65 0 12 0 0 5.35 0 12s5.35 12 12 12z" fill="#ffb208"/><path clip-rule="evenodd" d="M7.5 6.5V10H6v1.3h1.5v1.4H6V14h1.5v3.5H13s3.582-.358 4.682-3.5H19v-1.3h-1.035a6.941 6.941 0 0 0 0-1.4H19V10h-1.318C16.582 6.858 13 6.5 13 6.5zm9.155 6.2c.03-.22.046-.453.046-.7 0-.248-.016-.48-.046-.7H8.801v1.4zM8.801 14v2.2h4.138s2.33-.237 3.323-2.2zm0-4h7.461c-.992-1.964-3.323-2.2-3.323-2.2H8.8z" fill="#fff" fill-rule="evenodd"/></svg>
